brandFactory_export/2.Regular/Barco_2Regular.svg

<?xml version="1.0" encoding="UTF-8"?>
<svg width="24px" height="24px" viewBox="0 0 24 24" version="1.1" xmlns="http://www.w3.org/2000/svg" xmlns:xlink="http://www.w3.org/1999/xlink">
    <title>2.Regular/Barco_2Regular</title>
    <g id="Symbols" stroke="none" stroke-width="1" fill="none" fill-rule="evenodd">
        <g id="2.Regular/Barco_2Regular" fill="#5CB615" fill-rule="nonzero">
            <path d="M20.2117647,18.9243697 C21.3983193,17.7848739 22.0537815,15.9932773 22.1613445,13.5966387 L1.4789916,13.5731092 L1.76806723,19.8789916 C1.76806723,19.8789916 1.79831933,20.2487395 1.96638655,20.2487395 L16.9008403,20.2487395 C16.9579832,20.2420168 18.7630252,20.3159664 20.2117647,18.9243697 Z M3.80504202,9.35462185 L3.78487395,12.0302521 L17.0957983,12.0134454 C16.9882353,11.2672269 16.7058824,10.6722689 16.2588235,10.2386555 C15.3042017,9.3210084 13.8521008,9.36134454 13.8386555,9.35462185 C13.7546218,9.34453782 9.72436975,9.34789916 6.75294118,9.34789916 C5.36806723,9.3512605 4.21176471,9.3512605 3.80504202,9.35462185 L3.80504202,9.35462185 Z M6.22857143,4.27226891 L9.63361345,4.27226891 L9.63361345,3.47563025 L6.22857143,3.47563025 L6.22857143,4.27226891 Z M6.22857143,7.88907563 L9.63361345,7.88907563 L9.63361345,5.72436975 L6.22857143,5.72436975 L6.22857143,7.88907563 Z M22.9008403,12.1411765 C23.3008403,12.1411765 23.6235294,12.4672269 23.6235294,12.8672269 C23.6235294,16.0605042 22.8033613,18.4571429 21.1865546,19.9932773 C19.512605,21.5865546 17.5294118,21.7008403 16.994958,21.7008403 C16.9176471,21.7008403 16.8705882,21.697479 16.8605042,21.697479 L1.96638655,21.697479 C0.820168067,21.697479 0.356302521,20.6453782 0.32605042,19.9394958 L0.00336134454,12.8739496 C-0.00672268908,12.6756303 0.0672268908,12.4806723 0.201680672,12.3361345 C0.339495798,12.1915966 0.527731092,12.1109244 0.722689076,12.1109244 L2.33613445,12.1142857 L2.35966387,9.20336134 C2.33613445,8.95798319 2.39327731,8.62857143 2.61512605,8.35966387 C2.78319328,8.15462185 3.10588235,7.90588235 3.69411765,7.89915966 C3.85210084,7.89579832 4.2487395,7.89579832 4.78655462,7.89579832 L4.78655462,2.74621849 C4.78655462,2.34621849 5.1092437,2.02016807 5.5092437,2.02016807 L10.3596639,2.02016807 C10.7596639,2.02016807 11.0823529,2.34621849 11.0823529,2.74621849 L11.0823529,7.89915966 C12.5445378,7.90252101 13.6806723,7.90252101 13.8117647,7.90252101 C13.8655462,7.90252101 15.8554622,7.83193277 17.2605042,9.18991597 C18.0201681,9.92268908 18.4369748,10.9210084 18.5445378,12.1378151 L22.9008403,12.1411765 Z M5.36806723,16.4067227 C5.09915966,16.4067227 4.88403361,16.6252101 4.88403361,16.8941176 C4.88403361,17.1630252 5.10252101,17.3815126 5.36806723,17.3815126 C5.63361345,17.3815126 5.85210084,17.1630252 5.85210084,16.8941176 C5.85210084,16.6252101 5.63361345,16.4067227 5.36806723,16.4067227 Z M5.36806723,18.3563025 C4.56806723,18.3563025 3.91932773,17.7008403 3.91932773,16.897479 C3.91932773,16.0941176 4.56806723,15.4386555 5.36806723,15.4386555 C6.16806723,15.4386555 6.81680672,16.0941176 6.81680672,16.897479 C6.81680672,17.7008403 6.16470588,18.3563025 5.36806723,18.3563025 Z M10.2084034,16.4067227 C9.9394958,16.4067227 9.7210084,16.6252101 9.7210084,16.8941176 C9.7210084,17.1630252 9.9394958,17.3815126 10.2084034,17.3815126 C10.4773109,17.3815126 10.692437,17.1630252 10.692437,16.8941176 C10.692437,16.6252101 10.4773109,16.4067227 10.2084034,16.4067227 Z M10.2084034,18.3563025 C9.40840336,18.3563025 8.75966387,17.7008403 8.75966387,16.897479 C8.75966387,16.0941176 9.41176471,15.4386555 10.2084034,15.4386555 C11.0084034,15.4386555 11.6571558,16.0941176 11.6571558,16.897479 C11.6605042,17.7008403 11.0084034,18.3563025 10.2084034,18.3563025 Z M15.0521008,16.4067227 C14.7831933,16.4067227 14.5680672,16.6252101 14.5680672,16.8941176 C14.5680672,17.1630252 14.7865546,17.3815126 15.0521008,17.3815126 C15.3210084,17.3815126 15.5361345,17.1630252 15.5361345,16.8941176 C15.5361345,16.6252101 15.3210084,16.4067227 15.0521008,16.4067227 Z M15.0521008,18.3563025 C14.2521008,18.3563025 13.6033613,17.7008403 13.6033613,16.897479 C13.6033613,16.0941176 14.2521008,15.4386555 15.0521008,15.4386555 C15.8521008,15.4386555 16.5008403,16.0941176 16.5008403,16.897479 C16.5008403,17.7008403 15.8521008,18.3563025 15.0521008,18.3563025 Z" id="Barco_2Regular"></path>
        </g>
    </g>
</svg>

<svg width="24" height="24" viewBox="0 0 24 24" xmlns="http://www.w3.org/2000/svg"><path d="M20.212 18.924c1.186-1.14 1.842-2.93 1.95-5.327l-20.683-.024.29 6.306s.03.37.197.37h14.935c.057-.007 1.862.067 3.31-1.325zM3.805 9.354l-.02 2.676 13.31-.017c-.107-.746-.39-1.34-.836-1.774-.955-.918-2.407-.878-2.42-.884-.084-.01-4.115-.007-7.086-.007-1.385.003-2.541.003-2.948.007zm2.424-5.082h3.405v-.796H6.229v.796zm0 3.617h3.405V5.724H6.229V7.89zM22.9 12.141c.4 0 .723.326.723.726 0 3.194-.82 5.59-2.437 7.126-1.674 1.594-3.658 1.708-4.192 1.708-.077 0-.124-.004-.134-.004H1.966c-1.146 0-1.61-1.052-1.64-1.758l-.323-7.065a.72.72 0 01.72-.763l1.613.003.024-2.91a1.172 1.172 0 01.255-.844c.168-.205.49-.454 1.08-.46.157-.004.554-.004 1.092-.004v-5.15c0-.4.322-.726.722-.726h4.85c.4 0 .723.326.723.726V7.9c1.463.004 2.599.004 2.73.004.054 0 2.043-.071 3.449 1.287.76.733 1.176 1.731 1.284 2.948l4.356.003zM5.368 16.407a.487.487 0 000 .975.487.487 0 000-.975zm0 1.95c-.8 0-1.449-.656-1.449-1.46 0-.803.65-1.458 1.45-1.458.8 0 1.448.655 1.448 1.458 0 .804-.652 1.46-1.449 1.46zm4.84-1.95a.488.488 0 000 .975.485.485 0 00.484-.488.485.485 0 00-.484-.487zm0 1.95c-.8 0-1.448-.656-1.448-1.46 0-.803.652-1.458 1.448-1.458.8 0 1.45.655 1.45 1.458a1.453 1.453 0 01-1.45 1.46zm4.844-1.95a.487.487 0 000 .975.485.485 0 00.484-.488.485.485 0 00-.484-.487zm0 1.95c-.8 0-1.449-.656-1.449-1.46 0-.803.65-1.458 1.45-1.458.8 0 1.448.655 1.448 1.458 0 .804-.649 1.46-1.449 1.46z" fill="#5CB615" fill-rule="nonzero"/></svg>
